icons/arrow-block-upB.svg

<svg width="24" height="24" viewBox="0 0 24 24" fill="none" xmlns="http://www.w3.org/2000/svg">
<path d="M18 14.3H14.5V20.6C14.5 20.9 14.2 21.2 13.9 21.2H9.99997C9.69997 21.2 9.39997 20.9 9.39997 20.6V14.3H5.99997C5.79997 14.3 5.69997 14.1 5.79997 13.9L11.5 3.99995C11.7 3.59995 12.3 3.59995 12.5 3.99995L18.2 13.9C18.3 14.1 18.2 14.3 18 14.3Z" fill="black"/>
<path fill-rule="evenodd" clip-rule="evenodd" d="M12 4.63464L6.86693 13.55H10.15V20.45H13.75V13.55H17.133L12 4.63464ZM13.1588 3.64107C12.6755 2.71958 11.3244 2.71958 10.8412 3.64107L5.13902 13.5448L5.12916 13.5645C4.9908 13.8413 4.95749 14.192 5.11666 14.5104C5.28475 14.8465 5.62392 15.05 5.99998 15.05H8.64998V20.6C8.64998 20.9939 8.83939 21.325 9.05715 21.5428C9.27491 21.7605 9.60606 21.95 9.99998 21.95H13.9C14.2939 21.95 14.6251 21.7605 14.8428 21.5428C15.0606 21.325 15.25 20.9939 15.25 20.6V15.05H18C18.376 15.05 18.7152 14.8465 18.8833 14.5104C19.0425 14.192 19.0092 13.8413 18.8708 13.5645L18.8609 13.5448L13.1588 3.64107Z" fill="black"/>
</svg>

<svg xmlns="http://www.w3.org/2000/svg" fill="none" viewBox="0 0 24 24">
  <path fill="#000" d="M18 14.3h-3.5v6.3c0 .3-.3.6-.6.6H10c-.3 0-.6-.3-.6-.6v-6.3H6c-.2 0-.3-.2-.2-.4L11.5 4c.2-.4.8-.4 1 0l5.7 9.9c.1.2 0 .4-.2.4Z"/>
  <path fill="#000" fill-rule="evenodd" d="M12 4.635 6.867 13.55h3.283v6.9h3.6v-6.9h3.383L12 4.635Zm1.159-.994c-.484-.921-1.835-.921-2.318 0L5.14 13.545l-.01.02a1.056 1.056 0 0 0-.012.945c.168.337.507.54.883.54h2.65v5.55c0 .394.19.725.407.943.218.218.55.407.943.407h3.9c.394 0 .725-.19.943-.407a1.35 1.35 0 0 0 .407-.943v-5.55H18a.978.978 0 0 0 .883-.54c.16-.318.126-.669-.012-.945l-.01-.02-5.702-9.904Z" clip-rule="evenodd"/>
</svg>
